pics/icons/16x16/actions/refresh.svg

<?xml version="1.0" encoding="UTF-8" standalone="no"?>
<!-- Created with Inkscape (http://www.inkscape.org/) -->
<svg
   xmlns:dc="http://purl.org/dc/elements/1.1/"
   xmlns:cc="http://creativecommons.org/ns#"
   xmlns:rdf="http://www.w3.org/1999/02/22-rdf-syntax-ns#"
   xmlns:svg="http://www.w3.org/2000/svg"
   xmlns="http://www.w3.org/2000/svg"
   xmlns:xlink="http://www.w3.org/1999/xlink"
   xmlns:sodipodi="http://sodipodi.sourceforge.net/DTD/sodipodi-0.dtd"
   xmlns:inkscape="http://www.inkscape.org/namespaces/inkscape"
   inkscape:export-ydpi="90.000000"
   inkscape:export-xdpi="90.000000"
   inkscape:export-filename="/home/jimmac/src/cvs/tango-icon-theme/16x16/actions/view-refresh.png"
   width="16"
   height="16"
   id="svg11300"
   sodipodi:version="0.32"
   inkscape:version="0.46"
   sodipodi:docbase="/home/jimmac/src/cvs/tango-icon-theme/16x16/actions"
   sodipodi:docname="view-refresh.svg"
   version="1.0"
   inkscape:r_cx="true"
   inkscape:r_cy="true"
   inkscape:output_extension="org.inkscape.output.svg.inkscape">
  <defs
     id="defs3">
    <inkscape:perspective
       sodipodi:type="inkscape:persp3d"
       inkscape:vp_x="0 : 8 : 1"
       inkscape:vp_y="0 : 1000 : 0"
       inkscape:vp_z="16 : 8 : 1"
       inkscape:persp3d-origin="8 : 5.3333333 : 1"
       id="perspective56" />
    <linearGradient
       inkscape:collect="always"
       id="linearGradient4203">
      <stop
         style="stop-color:#ffffff;stop-opacity:1;"
         offset="0"
         id="stop4205" />
      <stop
         style="stop-color:#ffffff;stop-opacity:0;"
         offset="1"
         id="stop4207" />
    </linearGradient>
    <linearGradient
       id="linearGradient2402">
      <stop
         style="stop-color:#729fcf;stop-opacity:1;"
         offset="0"
         id="stop2404" />
      <stop
         style="stop-color:#528ac5;stop-opacity:1;"
         offset="1"
         id="stop2406" />
    </linearGradient>
    <linearGradient
       id="linearGradient2380">
      <stop
         style="stop-color:#b9cfe7;stop-opacity:1"
         offset="0"
         id="stop2382" />
      <stop
         style="stop-color:#729fcf;stop-opacity:1"
         offset="1"
         id="stop2384" />
    </linearGradient>
    <linearGradient
       inkscape:collect="always"
       id="linearGradient2871">
      <stop
         style="stop-color:#3465a4;stop-opacity:1;"
         offset="0"
         id="stop2873" />
      <stop
         style="stop-color:#3465a4;stop-opacity:1"
         offset="1"
         id="stop2875" />
    </linearGradient>
    <linearGradient
       inkscape:collect="always"
       id="linearGradient2847">
      <stop
         style="stop-color:#3465a4;stop-opacity:1;"
         offset="0"
         id="stop2849" />
      <stop
         style="stop-color:#3465a4;stop-opacity:0;"
         offset="1"
         id="stop2851" />
    </linearGradient>
    <linearGradient
       id="linearGradient2831">
      <stop
         style="stop-color:#3465a4;stop-opacity:1;"
         offset="0"
         id="stop2833" />
      <stop
         id="stop2855"
         offset="0.33333334"
         style="stop-color:#5b86be;stop-opacity:1;" />
      <stop
         style="stop-color:#83a8d8;stop-opacity:0;"
         offset="1"
         id="stop2835" />
    </linearGradient>
    <linearGradient
       inkscape:collect="always"
       id="linearGradient2797">
      <stop
         style="stop-color:#ffffff;stop-opacity:1;"
         offset="0"
         id="stop2799" />
      <stop
         style="stop-color:#ffffff;stop-opacity:0;"
         offset="1"
         id="stop2801" />
    </linearGradient>
    <linearGradient
       inkscape:collect="always"
       id="linearGradient8662">
      <stop
         style="stop-color:#000000;stop-opacity:1;"
         offset="0"
         id="stop8664" />
      <stop
         style="stop-color:#000000;stop-opacity:0;"
         offset="1"
         id="stop8666" />
    </linearGradient>
    <linearGradient
       inkscape:collect="always"
       xlink:href="#linearGradient2831"
       id="linearGradient1486"
       gradientUnits="userSpaceOnUse"
       gradientTransform="matrix(0.372582,0,0,0.372582,-1.124245,-0.525628)"
       x1="13.478554"
       y1="10.612206"
       x2="15.419417"
       y2="19.115122" />
    <linearGradient
       inkscape:collect="always"
       xlink:href="#linearGradient2847"
       id="linearGradient1488"
       gradientUnits="userSpaceOnUse"
       gradientTransform="matrix(-0.372582,0,0,-0.372582,16.4104,16.65971)"
       x1="37.128052"
       y1="29.729605"
       x2="37.149288"
       y2="27.200562" />
    <linearGradient
       inkscape:collect="always"
       xlink:href="#linearGradient2871"
       id="linearGradient1501"
       gradientUnits="userSpaceOnUse"
       x1="46.834816"
       y1="45.264122"
       x2="45.380436"
       y2="50.939667" />
    <radialGradient
       inkscape:collect="always"
       xlink:href="#linearGradient8662"
       id="radialGradient1503"
       gradientUnits="userSpaceOnUse"
       gradientTransform="matrix(1,0,0,0.536723,-1.152597e-13,16.87306)"
       cx="24.837126"
       cy="36.421127"
       fx="24.837126"
       fy="36.421127"
       r="15.644737" />
    <linearGradient
       inkscape:collect="always"
       xlink:href="#linearGradient2380"
       id="linearGradient2386"
       x1="62.513836"
       y1="36.061237"
       x2="15.984863"
       y2="20.60858"
       gradientUnits="userSpaceOnUse" />
    <linearGradient
       inkscape:collect="always"
       xlink:href="#linearGradient2380"
       id="linearGradient2416"
       gradientUnits="userSpaceOnUse"
       x1="62.513836"
       y1="36.061237"
       x2="15.984863"
       y2="20.60858" />
    <linearGradient
       inkscape:collect="always"
       xlink:href="#linearGradient2831"
       id="linearGradient2428"
       gradientUnits="userSpaceOnUse"
       gradientTransform="matrix(-0.372582,0,0,-0.372582,17.18011,16.63285)"
       x1="13.478554"
       y1="10.612206"
       x2="15.419417"
       y2="19.115122" />
    <linearGradient
       inkscape:collect="always"
       xlink:href="#linearGradient2847"
       id="linearGradient2430"
       gradientUnits="userSpaceOnUse"
       gradientTransform="matrix(0.372582,0,0,0.372582,-0.35456,-0.552523)"
       x1="37.128052"
       y1="29.729605"
       x2="37.065414"
       y2="27.200562" />
    <linearGradient
       inkscape:collect="always"
       xlink:href="#linearGradient2380"
       id="linearGradient2432"
       gradientUnits="userSpaceOnUse"
       x1="62.513836"
       y1="36.061237"
       x2="15.984863"
       y2="20.60858" />
    <linearGradient
       inkscape:collect="always"
       xlink:href="#linearGradient2380"
       id="linearGradient2434"
       gradientUnits="userSpaceOnUse"
       x1="62.513836"
       y1="36.061237"
       x2="15.984863"
       y2="20.60858" />
    <linearGradient
       inkscape:collect="always"
       xlink:href="#linearGradient2871"
       id="linearGradient2436"
       gradientUnits="userSpaceOnUse"
       x1="46.834816"
       y1="45.264122"
       x2="45.380436"
       y2="50.939667" />
    <linearGradient
       inkscape:collect="always"
       xlink:href="#linearGradient2797"
       id="linearGradient2438"
       gradientUnits="userSpaceOnUse"
       x1="25.160334"
       y1="22.130732"
       x2="51.14727"
       y2="28.068384" />
    <linearGradient
       inkscape:collect="always"
       xlink:href="#linearGradient4203"
       id="linearGradient4209"
       x1="4.6287186"
       y1="26.844762"
       x2="63.380876"
       y2="26.844762"
       gradientUnits="userSpaceOnUse" />
    <linearGradient
       inkscape:collect="always"
       xlink:href="#linearGradient4203"
       id="linearGradient4211"
       gradientUnits="userSpaceOnUse"
       x1="30.402645"
       y1="18.274668"
       x2="57.05162"
       y2="29.032879" />
  </defs>
  <sodipodi:namedview
     stroke="#3465a4"
     fill="#729fcf"
     id="base"
     pagecolor="#ffffff"
     bordercolor="#666666"
     borderopacity="0.25490196"
     inkscape:pageopacity="0.0"
     inkscape:pageshadow="2"
     inkscape:zoom="1"
     inkscape:cx="-153.18555"
     inkscape:cy="4.0020614"
     inkscape:current-layer="layer1"
     showgrid="false"
     inkscape:grid-bbox="true"
     inkscape:document-units="px"
     inkscape:showpageshadow="false"
     inkscape:window-width="891"
     inkscape:window-height="818"
     inkscape:window-x="0"
     inkscape:window-y="30" />
  <metadata
     id="metadata4">
    <rdf:RDF>
      <cc:Work
         rdf:about="">
        <dc:format>image/svg+xml</dc:format>
        <dc:type
           rdf:resource="http://purl.org/dc/dcmitype/StillImage" />
        <dc:creator>
          <cc:Agent>
            <dc:title>Jakub Steiner</dc:title>
          </cc:Agent>
        </dc:creator>
        <dc:source>http://jimmac.musichall.cz</dc:source>
        <cc:license
           rdf:resource="http://creativecommons.org/licenses/publicdomain/" />
        <dc:title>View Refresh</dc:title>
        <dc:subject>
          <rdf:Bag>
            <rdf:li>reload</rdf:li>
            <rdf:li>refresh</rdf:li>
            <rdf:li>view</rdf:li>
          </rdf:Bag>
        </dc:subject>
      </cc:Work>
      <cc:License
         rdf:about="http://creativecommons.org/licenses/publicdomain/">
        <cc:permits
           rdf:resource="http://creativecommons.org/ns#Reproduction" />
        <cc:permits
           rdf:resource="http://creativecommons.org/ns#Distribution" />
        <cc:permits
           rdf:resource="http://creativecommons.org/ns#DerivativeWorks" />
      </cc:License>
    </rdf:RDF>
  </metadata>
  <g
     id="layer1"
     inkscape:label="Layer 1"
     inkscape:groupmode="layer"
     inkscape:r_cx="true"
     inkscape:r_cy="true">
    <path
       style="color:#000000;fill:url(#linearGradient1486);fill-opacity:1;fill-rule:nonzero;stroke:url(#linearGradient1488);stroke-width:1.00000083;stroke-linecap:butt;stroke-linejoin:miter;marker:none;marker-start:none;marker-mid:none;marker-end:none;stroke-miterlimit:4;stroke-dasharray:none;stroke-dashoffset:0;stroke-opacity:1;visibility:visible;display:block;overflow:visible"
       d="M 6.4761309,3.3679546 C 6.4761309,3.3679546 3.897479,3.1350908 4.701109,7.1797854 L 1.571719,7.0030087 C 1.571719,7.0030087 1.492845,2.6227904 6.4761309,3.3679546 z "
       id="path2865"
       inkscape:r_cx="true"
       inkscape:r_cy="true"
       sodipodi:nodetypes="cccc" />
    <g
       id="g1878"
       transform="matrix(-0.215744,-0.182278,-0.182278,0.215744,19.90815,4.559727)"
       inkscape:r_cx="true"
       inkscape:r_cy="true"
       style="fill:url(#linearGradient2386);fill-opacity:1;stroke:#3465a4;stroke-opacity:1">
      <path
         sodipodi:nodetypes="ccccccc"
         id="path1880"
         d="M 44.378968,48.447073 C 61.440837,32.603911 48.349808,12.300872 22.462411,12.49765 L 22.113843,3.1515478 L 7.6245439,20.496754 L 22.714328,33.219189 C 22.714328,33.219189 22.462411,23.337969 22.462411,23.337969 C 41.292171,24.336946 50.801089,33.691805 44.378968,48.447073 z "
         style="opacity:1;color:#000000;fill:url(#linearGradient2416);fill-opacity:1;fill-rule:nonzero;stroke:url(#linearGradient1501);stroke-width:3.5406177;stroke-linecap:butt;stroke-linejoin:miter;marker:none;marker-start:none;marker-mid:none;marker-end:none;stroke-miterlimit:4;stroke-dasharray:none;stroke-dashoffset:0;stroke-opacity:1;visibility:visible;display:block;overflow:visible"
         inkscape:r_cx="true"
         inkscape:r_cy="true" />
    </g>
    <g
       style="opacity:0.82777778;fill:none;fill-opacity:1;stroke:url(#linearGradient4209);stroke-opacity:1"
       inkscape:r_cy="true"
       inkscape:r_cx="true"
       transform="matrix(-0.15344,-0.129637,-0.129637,0.15344,17.15199,4.581068)"
       id="g2805">
      <path
         inkscape:r_cy="true"
         inkscape:r_cx="true"
         style="opacity:1;color:#000000;fill:none;fill-opacity:1;fill-rule:nonzero;stroke:url(#linearGradient4211);stroke-width:4.9782815;stroke-linecap:butt;stroke-linejoin:miter;marker:none;marker-start:none;marker-mid:none;marker-end:none;stroke-miterlimit:4;stroke-dasharray:none;stroke-dashoffset:0;stroke-opacity:1;visibility:visible;display:block;overflow:visible"
         d="M 60.734047,41.389285 C 57.120862,25.652682 47.222031,13.61295 16.221149,13.395138 L 16.054194,8.8744006 L 7.1178593,19.424571 L 16.355283,27.059809 C 16.355283,27.059809 16.27727,18.480995 16.27727,18.480995 C 51.945598,19.601196 59.783231,37.154742 60.734047,41.389285 z "
         id="path2807"
         sodipodi:nodetypes="ccccccc" />
    </g>
    <path
       sodipodi:nodetypes="cccc"
       inkscape:r_cy="true"
       inkscape:r_cx="true"
       id="path2418"
       d="M 9.844876,12.650858 C 9.844876,12.650858 12.114169,12.485974 11.398927,8.8390269 L 14.6609,9.0158036 C 14.35154,10.650988 14.828163,13.396022 9.844876,12.650858 z "
       style="color:#000000;fill:url(#linearGradient2428);fill-opacity:1;fill-rule:nonzero;stroke:url(#linearGradient2430);stroke-width:1.00000083;stroke-linecap:butt;stroke-linejoin:miter;marker:none;marker-start:none;marker-mid:none;marker-end:none;stroke-miterlimit:4;stroke-dasharray:none;stroke-dashoffset:0;stroke-opacity:1;visibility:visible;display:block;overflow:visible" />
    <g
       style="fill:url(#linearGradient2432);fill-opacity:1;stroke:#3465a4;stroke-opacity:1"
       inkscape:r_cy="true"
       inkscape:r_cx="true"
       transform="matrix(0.215744,0.182278,0.182278,-0.215744,-3.852319,11.54749)"
       id="g2420">
      <path
         inkscape:r_cy="true"
         inkscape:r_cx="true"
         style="opacity:1;color:#000000;fill:url(#linearGradient2434);fill-opacity:1;fill-rule:nonzero;stroke:url(#linearGradient2436);stroke-width:3.5406177;stroke-linecap:butt;stroke-linejoin:miter;marker:none;marker-start:none;marker-mid:none;marker-end:none;stroke-miterlimit:4;stroke-dasharray:none;stroke-dashoffset:0;stroke-opacity:1;visibility:visible;display:block;overflow:visible"
         d="M 43.975029,48.925174 C 60.356826,32.917125 49.664587,13.411704 22.462411,12.49765 L 22.113843,3.1515478 L 7.6245439,20.496754 L 22.714328,33.219189 C 22.714328,33.219189 22.462411,23.337969 22.462411,23.337969 C 41.292171,24.336946 55.112284,36.105178 43.975029,48.925174 z "
         id="path2422"
         sodipodi:nodetypes="ccccccc" />
    </g>
    <g
       id="g2424"
       transform="matrix(0.15344,0.129637,0.129637,-0.15344,-1.096155,11.52615)"
       inkscape:r_cx="true"
       inkscape:r_cy="true"
       style="opacity:0.82777778;fill:none;fill-opacity:1;stroke:#ffffff;stroke-opacity:1">
      <path
         sodipodi:nodetypes="ccccccc"
         id="path2426"
         d="M 60.891735,44.577451 C 59.70662,26.208012 43.643431,13.757742 16.22115,13.395138 L 16.206549,8.4200127 L 7.2182607,19.305735 L 16.099175,26.639769 C 16.099175,26.639769 15.838794,18.517865 15.838794,18.517865 C 46.171674,19.203554 56.855435,31.218867 60.891735,44.577451 z "
         style="opacity:1;color:#000000;fill:none;fill-opacity:1;fill-rule:nonzero;stroke:url(#linearGradient2438);stroke-width:4.9782815;stroke-linecap:butt;stroke-linejoin:miter;marker:none;marker-start:none;marker-mid:none;marker-end:none;stroke-miterlimit:4;stroke-dasharray:none;stroke-dashoffset:0;stroke-opacity:1;visibility:visible;display:block;overflow:visible"
         inkscape:r_cx="true"
         inkscape:r_cy="true" />
    </g>
  </g>
</svg>

<svg xmlns="http://www.w3.org/2000/svg" xmlns:xlink="http://www.w3.org/1999/xlink" width="16" height="16" version="1.0"><defs><linearGradient id="g"><stop offset="0" stop-color="#fff"/><stop offset="1" stop-color="#fff" stop-opacity="0"/></linearGradient><linearGradient id="e"><stop offset="0" stop-color="#b9cfe7"/><stop offset="1" stop-color="#729fcf"/></linearGradient><linearGradient id="c"><stop offset="0" stop-color="#3465a4"/><stop offset="1" stop-color="#3465a4"/></linearGradient><linearGradient id="b"><stop offset="0" stop-color="#3465a4"/><stop offset="1" stop-color="#3465a4" stop-opacity="0"/></linearGradient><linearGradient id="a"><stop offset="0" stop-color="#3465a4"/><stop offset=".333" stop-color="#5b86be"/><stop offset="1" stop-color="#83a8d8" stop-opacity="0"/></linearGradient><linearGradient id="f"><stop offset="0" stop-color="#fff"/><stop offset="1" stop-color="#fff" stop-opacity="0"/></linearGradient><linearGradient id="d"><stop offset="0"/><stop offset="1" stop-opacity="0"/></linearGradient><linearGradient xlink:href="#a" id="h" gradientUnits="userSpaceOnUse" gradientTransform="translate(-1.124 -.526) scale(.37258)" x1="13.479" y1="10.612" x2="15.419" y2="19.115"/><linearGradient xlink:href="#b" id="i" gradientUnits="userSpaceOnUse" gradientTransform="translate(16.41 16.66) scale(.37258)" x1="37.128" y1="29.73" x2="37.149" y2="27.201"/><linearGradient xlink:href="#c" id="l" gradientUnits="userSpaceOnUse" x1="46.835" y1="45.264" x2="45.38" y2="50.94"/><linearGradient xlink:href="#e" id="j" x1="62.514" y1="36.061" x2="15.985" y2="20.609" gradientUnits="userSpaceOnUse"/><linearGradient xlink:href="#e" id="k" gradientUnits="userSpaceOnUse" x1="62.514" y1="36.061" x2="15.985" y2="20.609"/><linearGradient xlink:href="#a" id="o" gradientUnits="userSpaceOnUse" gradientTransform="translate(17.18 16.633) scale(.37258)" x1="13.479" y1="10.612" x2="15.419" y2="19.115"/><linearGradient xlink:href="#b" id="p" gradientUnits="userSpaceOnUse" gradientTransform="translate(-.355 -.553) scale(.37258)" x1="37.128" y1="29.73" x2="37.065" y2="27.201"/><linearGradient xlink:href="#e" id="q" gradientUnits="userSpaceOnUse" x1="62.514" y1="36.061" x2="15.985" y2="20.609"/><linearGradient xlink:href="#e" id="r" gradientUnits="userSpaceOnUse" x1="62.514" y1="36.061" x2="15.985" y2="20.609"/><linearGradient xlink:href="#c" id="s" gradientUnits="userSpaceOnUse" x1="46.835" y1="45.264" x2="45.38" y2="50.94"/><linearGradient xlink:href="#f" id="t" gradientUnits="userSpaceOnUse" x1="25.16" y1="22.131" x2="51.147" y2="28.068"/><linearGradient xlink:href="#g" id="m" x1="4.629" y1="26.845" x2="63.381" y2="26.845" gradientUnits="userSpaceOnUse"/><linearGradient xlink:href="#g" id="n" gradientUnits="userSpaceOnUse" x1="30.403" y1="18.275" x2="57.052" y2="29.033"/></defs><path style="marker:none" d="M6.476 3.368S3.897 3.135 4.701 7.18l-3.13-.177s-.078-4.38 4.905-3.635z" color="#000" fill="url(#h)" stroke="url(#i)" display="block" overflow="visible"/><path d="M44.379 48.447c17.062-15.843 3.97-36.146-21.917-35.95l-.348-9.345-14.49 17.345 15.09 12.722-.252-9.881c18.83.999 28.34 10.354 21.917 25.11z" style="marker:none" color="#000" fill="url(#k)" stroke="url(#l)" stroke-width="3.541" display="block" overflow="visible" transform="matrix(-.21574 -.18228 -.18228 .21574 19.908 4.56)"/><path style="marker:none" d="M60.734 41.39c-3.613-15.737-13.512-27.777-44.513-27.995l-.167-4.52-8.936 10.55 9.237 7.635-.078-8.579c35.669 1.12 43.506 18.674 44.457 22.908z" color="#000" stroke="url(#n)" stroke-width="4.978" display="block" overflow="visible" transform="matrix(-.15344 -.12964 -.12964 .15344 17.152 4.581)" opacity=".828" fill="none"/><path d="M9.845 12.65s2.27-.164 1.554-3.811l3.262.177c-.31 1.635.167 4.38-4.816 3.635z" style="marker:none" color="#000" fill="url(#o)" stroke="url(#p)" display="block" overflow="visible"/><path style="marker:none" d="M43.975 48.925c16.382-16.008 5.69-35.513-21.513-36.427l-.348-9.346-14.49 17.345 15.09 12.722-.252-9.881c18.83.999 32.65 12.767 21.513 25.587z" color="#000" fill="url(#r)" stroke="url(#s)" stroke-width="3.541" display="block" overflow="visible" transform="matrix(.21574 .18228 .18228 -.21574 -3.852 11.547)"/><path d="M60.892 44.577c-1.185-18.369-17.249-30.82-44.67-31.182l-.015-4.975-8.989 10.886L16.1 26.64l-.26-8.122c30.333.686 41.016 12.7 45.053 26.06z" style="marker:none" color="#000" stroke="url(#t)" stroke-width="4.978" display="block" overflow="visible" transform="matrix(.15344 .12964 .12964 -.15344 -1.096 11.526)" opacity=".828" fill="none"/></svg>
